docs/local/img/sprites/tg.svg

<svg width="22" height="19" viewBox="0 0 22 19" xmlns="http://www.w3.org/2000/svg">
<path d="M0.793432 9.39183L5.69807 11.1011L17.3422 3.79618C17.511 3.69024 17.684 3.92549 17.5384 4.063L8.72289 12.3896L8.39506 17.0512C8.3701 17.4058 8.78638 17.6032 9.03343 17.354L11.7477 14.6151L16.7097 18.4696C17.2445 18.8851 18.019 18.5923 18.1632 17.92L21.6183 1.82182C21.8154 0.90346 20.9385 0.128528 20.0827 0.464839L0.768476 8.05427C0.162596 8.29237 0.179099 9.17777 0.793432 9.39183Z"/>
</svg>

<svg width="22" height="19" viewBox="0 0 22 19" xmlns="http://www.w3.org/2000/svg"><path d="M.793 9.392l4.905 1.71 11.644-7.306c.169-.106.342.13.196.267L8.723 12.39l-.328 4.661c-.025.355.391.552.638.303l2.715-2.739 4.962 3.855c.534.415 1.309.122 1.453-.55l3.455-16.098c.197-.919-.68-1.693-1.535-1.357L.768 8.055C.163 8.291.18 9.177.793 9.391z"/></svg>
